X: 1
T: Commoner's Lot
C: Andy Cutting
M: 2/4
K: F
L: 1/8
"F" F3/2F/ FG | AG FG/A/ | "Bb" B3/2A/ Bd | "C" cG BA |
"F" F3/2F/ FG | AG FG/A/ | "Bb" BF d(c| "C" c4) :|]
"Bb" dB fe- | "C" ed cB | "F" c2 "Gm" Bc/B/ | "Am" AF GA |
"Bb" B3/2D/ DB | "Gm" BA GF | "Bb" Bc AG- | "C" GA Bc |
"Bb" dB fe- | "C" ed cd/e/ | "F" f3/2c cA | "Bb" d2 GA |
"Gm" B3/2A/ GF | "Bb" BA GF | "Gm" BA Bc- | "C" c4 |]
